!!!COM:	Martini, Johannes
!!!CDT:	~1440///-~1497//
!!!OTL:	La fleur de biault&eacute;
!!!AGN:	Motet
!!!SCT:	Mar3016
!!!SCA:	Mar3016
!!!voices:	4
**kern	**kern	**kern	**kern
*staff4	*staff3	*staff2	*staff1
*Ivox	*Ivox	*Ivox	*Ivox
*I"Bassus	*I"Tenor	*I"Contra	*I"Cantus
*I'B	*I'T	*I'C	*I'Cn
*clefF4	*clefGv2	*clefGv2	*clefG2
*k[]	*k[]	*k[]	*k[]
*M2/1	*M2/1	*M2/1	*M2/1
*met(C|)	*met(C|)	*met(C|)	*met(C|)
=1-	=1-	=1-	=1-
0r	0r	1.G	0r
.	.	2F/	.
=2	=2	=2	=2
0r	0r	1E	0r
.	.	1D	.
=3	=3	=3	=3
1.G	0r	2d\	0r
.	.	2.e\	.
.	.	4d\	.
2F\	.	[2d\	.
=4	=4	=4	=4
1E	0r	2d\]	0r
.	.	2c#i\	.
1D	.	1d	.
=5	=5	=5	=5
2C/	0r	1e	1.g
1E	.	.	.
.	.	2c\	.
2D\	.	2A/	2f/
=6	=6	=6	=6
2C/	0r	1c	1e
4BB/	.	.	.
4AA/	.	.	.
2BB/	.	2d\	1d
[2GG/	.	[2B\	.
=7	=7	=7	=7
2GG/]	1.G	2B\]	2c/
2GG/	.	2d\	1g
4C/	.	2c\	.
4D\	.	.	.
4E\	2F/	2d\	2a/
4F\	.	.	.
=8	=8	=8	=8
1G	1E	1e	2b\
.	.	.	2cc\
2F\	1D	1A	1dd
2A\	.	.	.
=9	=9	=9	=9
2G\	1.G	2B\	2b\
1B	.	2G/	1dd
.	.	2B\	.
2A\	2A/	2c\	2cc\
=10	=10	=10	=10
2.G\	2B\	2.d\	1b
.	2c\	.	.
4F\	.	4e\	.
1D	1d	1f	1a
=11	=11	=11	=11
1GG	2B\	1d	2g/
.	1d	.	2f/
1r	.	2f\	2b-i\
.	2c\	[2e\	[2a/
=12	=12	=12	=12
1r	2B\	2e\]	4a/]
.	.	.	4g/
.	2G/	2d\	1g
1D	1A	1d	.
.	.	.	2f#i/
=13	=13	=13	=13
1E	1G	2B\	1g
.	.	2G/	.
2D\	1d	2A/	1r
[2BB/	.	2D/	.
=14	=14	=14	=14
2BB/]	1e	1G	1r
2C/	.	.	.
2D\	2d\	2F/	1d
[2GG/	[2B\	2G/	.
=15	=15	=15	=15
2GG/]	2B\]	2B\	1e
2AA/	2c\	2A/	.
2BB/	1d	2F/	2d/
[2GG/	.	[2G/	[2B/
=16	=16	=16	=16
2GG/]	1G	2G/]	2B/]
2AA/	.	4F/	2c/
.	.	4E/	.
2BB/	2r	2D/	4d/
.	.	.	4c/
2GG/	2D/	2d\	4B/
.	.	.	4A/
=17	=17	=17	=17
2.C/	2E/	2c\	1G
.	1G	2.e\	.
4D\	.	.	.
2E\	.	.	2r
.	.	4d\	.
2F\	2F/	[2d\	2d/
=18	=18	=18	=18
2G\	1E	2d\]	2e/
4F\	.	2c\	1g
4G\	.	.	.
1A	1D	1d	.
.	.	.	2f/
=19	=19	=19	=19
2AA/	1A	1c	1e
2C/	.	.	.
2D\	2F/	2A/	1d
[2GG/	[2G/	[2B-i\	.
=20	=20	=20	=20
4GG/]	2G/]	2B-\]	1r
4AA/	.	.	.
4BB/	4F/	4A/	.
4C/	4E/	4G/	.
4D\	1D	1F	1a
4E\	.	.	.
4F\	.	.	.
4G\	.	.	.
=21	=21	=21	=21
2A\	1r	2D/	2f/
1G	.	1E	1g
.	2G/	.	.
2D\	2A/	2F/	4f/
.	.	.	4e/
=22	=22	=22	=22
2.G\	2B\	2G/	1d
.	1d	1B	.
4A\	.	.	.
2B\	.	.	2g/
2A\	2c\	2c\	2a/
=23	=23	=23	=23
1G	2d\	2B\	2b\
.	2B\	2G/	1dd
2r	1A	1c	.
[2F\	.	.	2cc\
=24	=24	=24	=24
2F\]	2D/	2f\	2dd\
2E\	2G/	2g\	2b\
1F	4A/	2.f\	1a
.	4B\	.	.
.	4c\	.	.
.	4d\	4e\	.
=25	=25	=25	=25
2G\	2B\	2d\	2d/
2E\	2G/	2e\	2g/
2D\	1A	2A/	2f/
2C/	.	[2c\	[2e/
=26	=26	=26	=26
*M3/1	*M3/1	*M3/1	*M3/1
*met(O)	*met(O)	*met(O)	*met(O)
*met(3)	*met(3)	*met(3)	*met(3)
2E\	2G/	2c\]	4e/]
.	.	.	4d/
1D	2A/	1F	2.f/
.	1D	.	.
.	.	.	4e/
4C/	.	2G/	1d
4BB/	.	.	.
1AA	1E	1A	.
.	.	.	2c#i/
=27	=27	=27	=27
1.A	1.D	1.F	0.d
2G\	2r	2E/	.
1F	1r	1D	.
=28	=28	=28	=28
2E\	0G	0C	0.r
2C/	.	.	.
1E	.	.	.
1F	1A	1c	.
=29	=29	=29	=29
1G	1B	1B	0g
1C	1.c	1e	.
1F	.	1f	1a
.	2B\	.	.
=30	=30	=30	=30
1G	1G	1d	1b
1.F	2A/	0f	1.cc
.	2B\	.	.
.	2c\	.	.
2D\	2d\	.	2b\
=31	=31	=31	=31
1G	1B	1d	1g
1r	0A	1e	2a/
.	.	.	2b\
1F	.	1f	2cc\
.	.	.	2dd\
=32	=32	=32	=32
1G	1G	0d	1b
1D	1.d	.	0a
1F	.	1A	.
.	2c\	.	.
=33	=33	=33	=33
1.G	2B\	1d	1g
.	2A/	.	.
.	1G	1g	1.dd
2E\	.	.	.
1F	1A	1f	.
.	.	.	2cc\
=34	=34	=34	=34
1G	1G	1d	1b
2C/	0c	1c	2g/
1F	.	.	1a
.	.	1e	.
2E\	.	.	2g/
=35	=35	=35	=35
1G	1B	0d	1.g
0D	1A	.	.
.	.	.	4f#i/
.	.	.	4e/
.	1A	1d	1f#i
=36	=36	=36	=36
*M2/1	*M2/1	*M2/1	*M2/1
*met(C|)	*met(C|)	*met(C|)	*met(C|)
1GG	0G	1B	1.g
1C	.	1c	.
.	.	.	4f/
.	.	.	4e/
=37	=37	=37	=37
2BB/	1r	2d\	0d
1GG	.	2.B\	.
.	1G	.	.
.	.	4c\	.
2G\	.	[2d\	.
=38	=38	=38	=38
2F\	2A/	4d\]	1r
.	.	4c\	.
1G	1B	4B\	.
.	.	4A/	.
.	.	1G	1g
2E\	2c\	.	.
=39	=39	=39	=39
2F\	2A/	2r	2a/
2G\	2G/	1g	1b
1D	1d	.	.
.	.	2f\	2a/
=40	=40	=40	=40
2r	1G	2g\	2b\
2G\	.	2e\	2cc\
2A\	2D/	2f\	1dd
2B\	[2G/	[2d\	.
=41	=41	=41	=41
2G\	2G/]	2d\]	1g
2r	2c\	2e\	.
1G	2B\	2d\	2d/
.	2G/	2B\	[2g/
=42	=42	=42	=42
1F	1A	2c\	2g/]
.	.	2A/	2cc\
2G\	2G/	2B\	2b\
2E\	[2c\	2e\	2g/
=43	=43	=43	=43
2F\	2c\]	1A	1a
1D	1d	.	.
.	.	2F/	2b\
[2C/	2e\	2G/	[2g/
=44	=44	=44	=44
2C/]	1c	2E/	2g/]
4BB/	.	2D/	2a/
4AA/	.	.	.
1GG	2d\	2G/	1b
.	[2e\	2B\	.
=45	=45	=45	=45
1AA	2e\]	2A/	1cc
.	1f	2c\	.
2r	.	2B\	1dd
[2D\	2d\	2A/	.
=46	=46	=46	=46
4D\]	1f	4F/	2a/
4E\	.	4G/	.
4F\	.	4A/	1dd
4G\	.	4B\	.
1A	1e	1c	.
.	.	.	2cc#i\
=47	=47	=47	=47
*M3/1	*	*M3/1	*
*met(3)	*met(3)	*met(3)	*met(3)
*	*rscale:2/3	*	*rscale:2/3
1.D	0.d	1A	1.dd
.	.	1B	.
2E\	.	.	1.r
1F	.	1A	.
*	*	*	*rscale:1
=48	=48	=48	=48
*	*	*	*M3/1
*met(3)	*met(3)	*met(3)	*met(3)
2G\	0.r	1G	0b
2A\	.	.	.
2B\	.	1d	.
2c\	.	.	.
1A	.	1c	1cc
*	*rscale:1	*	*
=49	=49	=49	=49
*	*M3/1	*	*
*met(3)	*met(3)	*met(3)	*met(3)
1G	0B	1g	0dd
2F\	.	1d	.
2G\	.	.	.
1A	1c	1f	1cc
=50	=50	=50	=50
1G	0d	1g	1b
1D	.	0f	0a
1F	1c	.	.
=51	=51	=51	=51
1G	1B	1d	1d
1C	0A	1c	1e
1D	.	1A	[1f
=52	=52	=52	=52
1F	1D	1d	1f]
1E	1E	1c	1g
1D	1F	[1d	1a
=53	=53	=53	=53
1GG	1G	1d]	1b
1D	1A	1f	1.a
1G	1B	1d	.
.	.	.	2g/
=54	=54	=54	=54
1C	1c	1e	1.g
0D	0A	0d	.
.	.	.	2f#i/
.	.	.	2f#i/
.	.	.	2e/
=55	=55	=55	=55
0.GGl	0.Gl	0.dl	0.gl
==	==	==	==
*-	*-	*-	*-
!!!RDF**kern: l=long note in original notation
!!!RDF**kern: i=editorial accidental
!!!RDF**kern: V=start of tuplet marker
!!!RDF**kern: Z=end of tuplet marker
!!!ENC:	Chris Gage 11-06-2014
!!!END:	2015/03/02/
!!!EED:	Jesse Rodin
!!!EEV:	2015/03/07/
!!!ONB:	Translated from MusicXML and edited on 2015/03/07/ by Craig Sapp
!!muse2ps: C^@{COM}^i2I150v85,85,85,150Q16
